X: 10031
T: COOLUN
O: Irish
Q: "Slow"
%R: air, minuet, waltz
B: "Edinburgh Repository of Music" v.1 p.3 #1
F: http://digital.nls.uk/special-collections-of-printed-music/pageturner.cfm?id=87776133
Z: 2015 John Chambers <jc:trillian.mit.edu>
M: 3/4
L: 1/8
K: D
(3(ABc) |\
d2 d>f {f}ed/c/ | d2 A2 (3DFA |\
d>c de/f/ e>d | (d2 c2) d>c |\
{c}B2 (Bc/d/) (e/d/c/B/) | A2 F>AdA |\
c/B/A/G/ F>D TE>D | D4 :|
|: A>G |\
F>ED>E F>G | A>^GA>Bc>A |\
d>c de/f/ e>d | {d2}c4 d>c |\
B2 Bc/d/ (e/d/c/B/) | A2 F>AdA |\
c/B/A/G/ F>D TE>D | D4 :|

%%sep 2 1 500
%%sep 1 1 500

